!!!id: EG064
!!!page: 177-178
!!!COM: Anonymous
!!!LYR: Anonymous
!!!PTL@@FR: Chansons Populaires du Canada
!!!OTL@@FR: J'ai trop grand' peur des loups
!!!PUB: G. E. Desbarats
!!!YEM:
!!!PDT: 1865
!!!SMA:
!!!OMD:
!!!AGN-Laforte:
!!!AGN-type:
!!!AGN-rime:
**kern
*clefG2
*k[f#,c#,g#]
*A:
*M2/4
*
*
=1
8a
16a
16b/
8.cc#
16b/
=2
8a
8cc#
8b/
8r
!!LO:PB:g=original
=3
8a
16a
16b/
8.cc#
16b/
=4
8a
8cc#
8b
8r
=5
8a
16a
16b/
8.cc#
16b/
!!LO:PB:g=original
=6
8a
8g#
8.f#
16f#
=7
8f#
8e
4a
=8
4cc#
4b
!!LO:PB:g=original
=9
8a
16a
16b/
8.cc#
16b/
=10
8a
8g#
8.f#
16f#
=11
8f#
8e
4a
!!LO:PB:g=original
=12
4b/
8a
8r
==||
*
*
==|
*-
